icons/svgs/arrow-down-long-outline.svg

<svg width="24" height="24" viewBox="0 0 24 24" fill="none" xmlns="http://www.w3.org/2000/svg">
<path d="M11.8359 21.7266L6.52344 16.4141C6.13281 16.0625 6.13281 15.4766 6.52344 15.0859C6.875 14.7344 7.46094 14.7344 7.85156 15.0859L11.5625 18.8359V2.9375C11.5625 2.42969 11.9531 2 12.5 2C13.0078 2 13.4375 2.42969 13.4375 2.9375V18.8359L17.1484 15.125C17.5 14.7344 18.0859 14.7344 18.4766 15.125C18.8281 15.4766 18.8281 16.0625 18.4766 16.4141L13.125 21.7266C12.7734 22.1172 12.1875 22.1172 11.8359 21.7266Z" fill="black"/>
</svg>

<svg xmlns="http://www.w3.org/2000/svg" width="24" height="24" fill="currentColor" class="icon-arrow-down-long-outline" viewBox="0 0 24 24">
  <mask id="a" width="13" height="21" x="6" y="2" maskUnits="userSpaceOnUse" style="mask-type:alpha">
    <path d="m11.836 21.727-5.313-5.313c-.39-.352-.39-.937 0-1.328.352-.352.938-.352 1.329 0l3.71 3.75V2.938c0-.508.391-.938.938-.938a.95.95 0 0 1 .938.938v15.898l3.71-3.711c.352-.39.938-.39 1.329 0a.92.92 0 0 1 0 1.29l-5.352 5.312a.856.856 0 0 1-1.29 0"/>
  </mask>
  <g mask="url(#a)">
    <path d="M0 0h24v24H0z"/>
  </g>
</svg>
